X: 928
T: Jim Boulton's Fancy   #2
R: hornpipe
%S: s:2 b:16(4+4+4+4)
B: Francis O'Neill: "The Dance Music of Ireland" (1907) #928
Z: Frank Nordberg - http://www.musicaviva.com
F: http://www.musicaviva.com/abc/tunes/ireland/oneill-1001/0928/oneill-1001-0928-1.abc
N: Compacted via repeats and multiple endings [JC]
N: Compacted by using labels and play order [JC]
P: Play (A1A2)x2 + (BA2)x2
M: 2/4
L: 1/16
K: A
E2 "^A"|: ABcA BcdB | cdec [1,3 A2(Bc) | defe dcBA | GABG EFGE :|[2,4 defg | agae fdBG |
| A2A2A2 "^B":: (cd) | ecec a2(cd) | ecec A2(Bc) | defe dcBA | GABG EFG"^->A2"E |]
